images/indikatorenset/4920.svg

<?xml version="1.0" standalone="no"?><!DOCTYPE svg PUBLIC "-//W3C//DTD SVG 1.1//EN" "http://www.w3.org/Graphics/SVG/1.1/DTD/svg11.dtd"><svg xmlns:xlink="http://www.w3.org/1999/xlink" version="1.1" class="highcharts-root" style="font-family:Arial;font-size:12px;" xmlns="http://www.w3.org/2000/svg" width="485" height="415"><desc>Created with Highcharts 5.0.7</desc><defs><clipPath id="highcharts-li0hsrj-1"><rect x="0" y="0" width="401" height="291" fill="none"></rect></clipPath></defs><rect fill="#fbfbfb" class="highcharts-background" x="0" y="0" width="485" height="415" rx="0" ry="0"></rect><rect fill="none" class="highcharts-plot-background" x="74" y="58" width="401" height="291"></rect><g class="highcharts-grid highcharts-xaxis-grid "><path fill="none" class="highcharts-grid-line" d="M 77.5 58 L 77.5 349" opacity="1"></path><path fill="none" class="highcharts-grid-line" d="M 137.5 58 L 137.5 349" opacity="1"></path><path fill="none" class="highcharts-grid-line" d="M 198.5 58 L 198.5 349" opacity="1"></path><path fill="none" class="highcharts-grid-line" d="M 258.5 58 L 258.5 349" opacity="1"></path><path fill="none" class="highcharts-grid-line" d="M 319.5 58 L 319.5 349" opacity="1"></path><path fill="none" class="highcharts-grid-line" d="M 379.5 58 L 379.5 349" opacity="1"></path><path fill="none" class="highcharts-grid-line" d="M 440.5 58 L 440.5 349" opacity="1"></path></g><g class="highcharts-grid highcharts-yaxis-grid "><path fill="none" stroke="#e6e6e6" stroke-width="1" class="highcharts-grid-line" d="M 74 349.5 L 475 349.5" opacity="1"></path><path fill="none" stroke="#e6e6e6" stroke-width="1" class="highcharts-grid-line" d="M 74 313.5 L 475 313.5" opacity="1"></path><path fill="none" stroke="#e6e6e6" stroke-width="1" class="highcharts-grid-line" d="M 74 276.5 L 475 276.5" opacity="1"></path><path fill="none" stroke="#e6e6e6" stroke-width="1" class="highcharts-grid-line" d="M 74 240.5 L 475 240.5" opacity="1"></path><path fill="none" stroke="#e6e6e6" stroke-width="1" class="highcharts-grid-line" d="M 74 204.5 L 475 204.5" opacity="1"></path><path fill="none" stroke="#e6e6e6" stroke-width="1" class="highcharts-grid-line" d="M 74 167.5 L 475 167.5" opacity="1"></path><path fill="none" stroke="#e6e6e6" stroke-width="1" class="highcharts-grid-line" d="M 74 131.5 L 475 131.5" opacity="1"></path><path fill="none" stroke="#e6e6e6" stroke-width="1" class="highcharts-grid-line" d="M 74 94.5 L 475 94.5" opacity="1"></path><path fill="none" stroke="#e6e6e6" stroke-width="1" class="highcharts-grid-line" d="M 74 57.5 L 475 57.5" opacity="1"></path></g><rect fill="none" class="highcharts-plot-border" x="74" y="58" width="401" height="291"></rect><g class="highcharts-axis highcharts-xaxis "><path fill="none" class="highcharts-axis-line" stroke="#ccd6eb" stroke-width="1" d="M 74 349.5 L 475 349.5"></path></g><g class="highcharts-axis highcharts-yaxis "><path fill="none" class="highcharts-axis-line" d="M 74 58 L 74 349"></path></g><g class="highcharts-series-group"><g class="highcharts-series highcharts-series-0 highcharts-line-series highcharts-color-undefined " transform="translate(74,58) scale(1 1)" clip-path="url(#highcharts-li0hsrj-1)"><path fill="none" d="M 3.9313725490228 110.45748899999998 L 34.172699849173 116.743089 L 64.414027149324 37.081838999999974 L 94.655354449474 115.96946549999998 L 124.89668174962 96.89848949999998 L 155.13800904977 87.3318645 L 185.37933634992 102.52424699999997 L 215.62066365008 51.29515199999997 L 245.86199095023 104.83304099999998 L 276.10331825038 102.38340299999999 L 306.34464555053 99.89331599999997 L 336.58597285068 96.56398499999997 L 366.82730015083 107.05337099999997 L 397.06862745098 95.28838649999997" class="highcharts-graph" stroke="#B375AB" stroke-width="2" stroke-linejoin="round" stroke-linecap="round"></path><path fill="none" d="M -6.0686274509772 110.45748899999998 L 3.9313725490228 110.45748899999998 L 34.172699849173 116.743089 L 64.414027149324 37.081838999999974 L 94.655354449474 115.96946549999998 L 124.89668174962 96.89848949999998 L 155.13800904977 87.3318645 L 185.37933634992 102.52424699999997 L 215.62066365008 51.29515199999997 L 245.86199095023 104.83304099999998 L 276.10331825038 102.38340299999999 L 306.34464555053 99.89331599999997 L 336.58597285068 96.56398499999997 L 366.82730015083 107.05337099999997 L 397.06862745098 95.28838649999997 L 407.06862745098 95.28838649999997" stroke-linejoin="round" visibility="visible" stroke="rgba(192,192,192,0.0001)" stroke-width="22" class="highcharts-tracker"></path></g><g class="highcharts-markers highcharts-series-0 highcharts-line-series highcharts-color-undefined highcharts-tracker" transform="translate(74,58) scale(1 1)" clip-path="none"><path fill="#B375AB" d="M 7 110 A 4 4 0 1 1 6.999998000000167 109.99600000066667 Z" class="highcharts-point"></path><path fill="#B375AB" d="M 38 117 A 4 4 0 1 1 37.99999800000017 116.99600000066667 Z" class="highcharts-point"></path><path fill="#B375AB" d="M 68 37 A 4 4 0 1 1 67.99999800000016 36.99600000066666 Z" class="highcharts-point"></path><path fill="#B375AB" d="M 98 116 A 4 4 0 1 1 97.99999800000016 115.99600000066667 Z" class="highcharts-point"></path><path fill="#B375AB" d="M 128 97 A 4 4 0 1 1 127.99999800000016 96.99600000066667 Z" class="highcharts-point"></path><path fill="#B375AB" d="M 159 87 A 4 4 0 1 1 158.99999800000018 86.99600000066667 Z" class="highcharts-point"></path><path fill="#B375AB" d="M 189 103 A 4 4 0 1 1 188.99999800000018 102.99600000066667 Z" class="highcharts-point"></path><path fill="#B375AB" d="M 219 51 A 4 4 0 1 1 218.99999800000018 50.99600000066666 Z" class="highcharts-point"></path><path fill="#B375AB" d="M 249 105 A 4 4 0 1 1 248.99999800000018 104.99600000066667 Z" class="highcharts-point"></path><path fill="#B375AB" d="M 280 102 A 4 4 0 1 1 279.9999980000002 101.99600000066667 Z" class="highcharts-point"></path><path fill="#B375AB" d="M 310 100 A 4 4 0 1 1 309.9999980000002 99.99600000066667 Z" class="highcharts-point"></path><path fill="#B375AB" d="M 340 97 A 4 4 0 1 1 339.9999980000002 96.99600000066667 Z" class="highcharts-point"></path><path fill="#B375AB" d="M 370 107 A 4 4 0 1 1 369.9999980000002 106.99600000066667 Z" class="highcharts-point"></path><path fill="#B375AB" d="M 401 95 A 4 4 0 1 1 400.9999980000002 94.99600000066667 Z" class="highcharts-point"></path></g></g><text x="10" text-anchor="start" class="highcharts-title" style="color:#000000;font-size:14px;font-weight:bold;fill:#000000;" y="21"><tspan>Anzahl Besucher und Besucherinnen in Basler Museen seit</tspan><tspan dy="17" x="10">2002</tspan><title> Anzahl Besucher und Besucherinnen in Basler Museen seit 2002</title></text><g class="highcharts-data-labels highcharts-series-0 highcharts-line-series highcharts-color-undefined " transform="translate(74,58) scale(1 1)" opacity="1"><g class="highcharts-label highcharts-data-label highcharts-data-label-color-undefined " transform="translate(-5,87)"><text x="5" style="font-size:11px;font-weight:bold;color:#000000;text-outline:1px contrast;fill:#000000;" y="16"><tspan x="5" y="16" class="highcharts-text-outline" fill="#FFFFFF" stroke="#FFFFFF" stroke-width="2px" stroke-linejoin="round">1 240 842</tspan><tspan x="5" y="16">1 240 842</tspan></text></g><g class="highcharts-label highcharts-data-label highcharts-data-label-color-undefined " transform="translate(29,107)"><text x="5" style="font-size:11px;font-weight:bold;color:#000000;text-outline:1px contrast;fill:#000000;" y="16"></text></g><g class="highcharts-label highcharts-data-label highcharts-data-label-color-undefined " transform="translate(59,27)"><text x="5" style="font-size:11px;font-weight:bold;color:#000000;text-outline:1px contrast;fill:#000000;" y="16"></text></g><g class="highcharts-label highcharts-data-label highcharts-data-label-color-undefined " transform="translate(90,106)"><text x="5" style="font-size:11px;font-weight:bold;color:#000000;text-outline:1px contrast;fill:#000000;" y="16"></text></g><g class="highcharts-label highcharts-data-label highcharts-data-label-color-undefined " transform="translate(120,87)"><text x="5" style="font-size:11px;font-weight:bold;color:#000000;text-outline:1px contrast;fill:#000000;" y="16"></text></g><g class="highcharts-label highcharts-data-label highcharts-data-label-color-undefined " transform="translate(150,77)"><text x="5" style="font-size:11px;font-weight:bold;color:#000000;text-outline:1px contrast;fill:#000000;" y="16"></text></g><g class="highcharts-label highcharts-data-label highcharts-data-label-color-undefined " transform="translate(180,93)"><text x="5" style="font-size:11px;font-weight:bold;color:#000000;text-outline:1px contrast;fill:#000000;" y="16"></text></g><g class="highcharts-label highcharts-data-label highcharts-data-label-color-undefined " transform="translate(211,41)"><text x="5" style="font-size:11px;font-weight:bold;color:#000000;text-outline:1px contrast;fill:#000000;" y="16"></text></g><g class="highcharts-label highcharts-data-label highcharts-data-label-color-undefined " transform="translate(241,95)"><text x="5" style="font-size:11px;font-weight:bold;color:#000000;text-outline:1px contrast;fill:#000000;" y="16"></text></g><g class="highcharts-label highcharts-data-label highcharts-data-label-color-undefined " transform="translate(271,92)"><text x="5" style="font-size:11px;font-weight:bold;color:#000000;text-outline:1px contrast;fill:#000000;" y="16"></text></g><g class="highcharts-label highcharts-data-label highcharts-data-label-color-undefined " transform="translate(301,90)"><text x="5" style="font-size:11px;font-weight:bold;color:#000000;text-outline:1px contrast;fill:#000000;" y="16"></text></g><g class="highcharts-label highcharts-data-label highcharts-data-label-color-undefined " transform="translate(332,87)"><text x="5" style="font-size:11px;font-weight:bold;color:#000000;text-outline:1px contrast;fill:#000000;" y="16"></text></g><g class="highcharts-label highcharts-data-label highcharts-data-label-color-undefined " transform="translate(362,97)"><text x="5" style="font-size:11px;font-weight:bold;color:#000000;text-outline:1px contrast;fill:#000000;" y="16"></text></g><g class="highcharts-label highcharts-data-label highcharts-data-label-color-undefined " transform="translate(347,72)"><text x="5" style="font-size:11px;font-weight:bold;color:#000000;text-outline:1px contrast;fill:#000000;" y="16"><tspan x="5" y="16" class="highcharts-text-outline" fill="#FFFFFF" stroke="#FFFFFF" stroke-width="2px" stroke-linejoin="round">1 345 097</tspan><tspan x="5" y="16">1 345 097</tspan></text></g></g><g class="highcharts-axis-labels highcharts-xaxis-labels "><text x="77.93137254902284" style="color:#000000;cursor:default;font-size:11px;fill:#000000;" text-anchor="middle" transform="translate(0,0)" y="368" opacity="1">2002</text><text x="138.4140271493235" style="color:#000000;cursor:default;font-size:11px;fill:#000000;" text-anchor="middle" transform="translate(0,0)" y="368" opacity="1">2004</text><text x="198.89668174962418" style="color:#000000;cursor:default;font-size:11px;fill:#000000;" text-anchor="middle" transform="translate(0,0)" y="368" opacity="1">2006</text><text x="259.37933634992487" style="color:#000000;cursor:default;font-size:11px;fill:#000000;" text-anchor="middle" transform="translate(0,0)" y="368" opacity="1">2008</text><text x="319.8619909502255" style="color:#000000;cursor:default;font-size:11px;fill:#000000;" text-anchor="middle" transform="translate(0,0)" y="368" opacity="1">2010</text><text x="380.34464555052614" style="color:#000000;cursor:default;font-size:11px;fill:#000000;" text-anchor="middle" transform="translate(0,0)" y="368" opacity="1">2012</text><text x="440.82730015082683" style="color:#000000;cursor:default;font-size:11px;fill:#000000;" text-anchor="middle" transform="translate(0,0)" y="368" opacity="1">2014</text></g><g class="highcharts-axis-labels highcharts-yaxis-labels "><text x="59" style="color:#000000;cursor:default;font-size:11px;fill:#000000;" text-anchor="end" transform="translate(0,0)" y="354" opacity="1"><tspan>0</tspan></text><text x="59" style="color:#000000;cursor:default;font-size:11px;fill:#000000;" text-anchor="end" transform="translate(0,0)" y="317" opacity="1"><tspan>250 000</tspan></text><text x="59" style="color:#000000;cursor:default;font-size:11px;fill:#000000;" text-anchor="end" transform="translate(0,0)" y="281" opacity="1"><tspan>500 000</tspan></text><text x="59" style="color:#000000;cursor:default;font-size:11px;fill:#000000;" text-anchor="end" transform="translate(0,0)" y="244" opacity="1"><tspan>750 000</tspan></text><text x="59" style="color:#000000;cursor:default;font-size:11px;fill:#000000;" text-anchor="end" transform="translate(0,0)" y="208" opacity="1"><tspan>1 000 000</tspan></text><text x="59" style="color:#000000;cursor:default;font-size:11px;fill:#000000;" text-anchor="end" transform="translate(0,0)" y="172" opacity="1"><tspan>1 250 000</tspan></text><text x="59" style="color:#000000;cursor:default;font-size:11px;fill:#000000;" text-anchor="end" transform="translate(0,0)" y="135" opacity="1"><tspan>1 500 000</tspan></text><text x="59" style="color:#000000;cursor:default;font-size:11px;fill:#000000;" text-anchor="end" transform="translate(0,0)" y="99" opacity="1"><tspan>1 750 000</tspan></text><text x="59" style="color:#000000;cursor:default;font-size:11px;fill:#000000;" text-anchor="end" transform="translate(0,0)" y="63" opacity="1"><tspan>2 000 000</tspan></text></g><text x="10" class="highcharts-credits" text-anchor="start" style="cursor:default;color:#000000;font-size:10px;fill:#000000;" y="400"><tspan>Quelle: Präsidialdepartement des Kantons Basel-Stadt, Abteilung Kultur</tspan></text></svg>

<svg class="highcharts-root" xmlns="http://www.w3.org/2000/svg" viewBox="0 0 485 415" font-family="Arial" font-size="12">
    <defs>
        <clipPath id="a">
            <path fill="none" d="M0 0h401v291H0z"/>
        </clipPath>
    </defs>
    <rect fill="#fbfbfb" class="highcharts-background" width="485" height="415" rx="0" ry="0"/>
    <path fill="none" class="highcharts-plot-background" d="M74 58h401v291H74z"/>
    <g class="highcharts-grid highcharts-xaxis-grid">
        <path fill="none" class="highcharts-grid-line" d="M77.5 58v291m60-291v291m61-291v291m60-291v291m61-291v291m60-291v291m61-291v291"/>
    </g>
    <g class="highcharts-grid highcharts-yaxis-grid">
        <path fill="none" stroke="#e6e6e6" class="highcharts-grid-line" d="M74 349.5h401m-401-36h401m-401-37h401m-401-36h401m-401-36h401m-401-37h401m-401-36h401m-401-37h401m-401-37h401"/>
    </g>
    <path fill="none" class="highcharts-plot-border" d="M74 58h401v291H74z"/>
    <g class="highcharts-axis highcharts-xaxis">
        <path fill="none" class="highcharts-axis-line" stroke="#ccd6eb" d="M74 349.5h401"/>
    </g>
    <g class="highcharts-axis highcharts-yaxis">
        <path fill="none" class="highcharts-axis-line" d="M74 58v291"/>
    </g>
    <g class="highcharts-series-group">
        <g class="highcharts-series highcharts-series-0 highcharts-line-series highcharts-color-undefined" transform="translate(74 58)" clip-path="url(#a)">
            <path fill="none" d="M3.931 110.457l30.242 6.286 30.241-79.661 30.241 78.887 30.242-19.07 30.241-9.567 30.241 15.192 30.242-51.229 30.241 53.538 30.241-2.45 30.242-2.49 30.241-3.329 30.241 10.49 30.242-11.766" class="highcharts-graph" stroke="#B375AB" stroke-width="2" stroke-linejoin="round" stroke-linecap="round"/>
            <path fill="none" d="M-6.069 110.457h10l30.242 6.286 30.241-79.661 30.241 78.887 30.242-19.07 30.241-9.567 30.241 15.192 30.242-51.229 30.241 53.538 30.241-2.45 30.242-2.49 30.241-3.329 30.241 10.49 30.242-11.766h10" stroke-linejoin="round" stroke="rgba(192,192,192,0.0001)" stroke-width="22" class="highcharts-tracker"/>
        </g>
        <g class="highcharts-markers highcharts-series-0 highcharts-line-series highcharts-color-undefined highcharts-tracker">
            <path fill="#B375AB" d="M81 168a4 4 0 1 1 0-.004zm31 7a4 4 0 1 1 0-.004zm30-80a4 4 0 1 1 0-.004zm30 79a4 4 0 1 1 0-.004zm30-19a4 4 0 1 1 0-.004zm31-10a4 4 0 1 1 0-.004zm30 16a4 4 0 1 1 0-.004zm30-52a4 4 0 1 1 0-.004zm30 54a4 4 0 1 1 0-.004zm31-3a4 4 0 1 1 0-.004zm30-2a4 4 0 1 1 0-.004zm30-3a4 4 0 1 1 0-.004zm30 10a4 4 0 1 1 0-.004zm31-12a4 4 0 1 1 0-.004z" class="highcharts-point"/>
        </g>
    </g>
    <text x="10" class="highcharts-title" y="21" color="#000" font-size="14" font-weight="700">
        <tspan>Anzahl Besucher und Besucherinnen in Basler Museen seit</tspan><tspan dy="17" x="10">2002</tspan><title> Anzahl Besucher und Besucherinnen in Basler Museen seit 2002</title>
    </text>
    <g class="highcharts-data-labels highcharts-series-0 highcharts-line-series highcharts-color-undefined">
        <text x="5" style="text-outline:1px contrast" y="16" font-size="11" font-weight="700" color="#000" transform="translate(69 145)" class="highcharts-label highcharts-data-label highcharts-data-label-color-undefined">
            <tspan x="5" y="16" class="highcharts-text-outline" fill="#FFF" stroke="#FFF" stroke-width="2" stroke-linejoin="round">1 240 842</tspan><tspan x="5" y="16">1 240 842</tspan>
        </text>
        <text x="5" style="text-outline:1px contrast" y="16" font-size="11" font-weight="700" color="#000" transform="translate(421 130)" class="highcharts-label highcharts-data-label highcharts-data-label-color-undefined">
            <tspan x="5" y="16" class="highcharts-text-outline" fill="#FFF" stroke="#FFF" stroke-width="2" stroke-linejoin="round">1 345 097</tspan><tspan x="5" y="16">1 345 097</tspan>
        </text>
    </g>
    <g class="highcharts-axis-labels highcharts-xaxis-labels" text-anchor="middle" color="#000" cursor="default" font-size="11">
        <text x="77.931" y="368">
            2002
        </text>
        <text x="138.414" y="368">
            2004
        </text>
        <text x="198.897" y="368">
            2006
        </text>
        <text x="259.379" y="368">
            2008
        </text>
        <text x="319.862" y="368">
            2010
        </text>
        <text x="380.345" y="368">
            2012
        </text>
        <text x="440.827" y="368">
            2014
        </text>
    </g>
    <g class="highcharts-axis-labels highcharts-yaxis-labels" text-anchor="end" color="#000" cursor="default" font-size="11">
        <text x="59" y="354">
            <tspan>0</tspan>
        </text>
        <text x="59" y="317">
            <tspan>250 000</tspan>
        </text>
        <text x="59" y="281">
            <tspan>500 000</tspan>
        </text>
        <text x="59" y="244">
            <tspan>750 000</tspan>
        </text>
        <text x="59" y="208">
            <tspan>1 000 000</tspan>
        </text>
        <text x="59" y="172">
            <tspan>1 250 000</tspan>
        </text>
        <text x="59" y="135">
            <tspan>1 500 000</tspan>
        </text>
        <text x="59" y="99">
            <tspan>1 750 000</tspan>
        </text>
        <text x="59" y="63">
            <tspan>2 000 000</tspan>
        </text>
    </g>
    <text x="10" class="highcharts-credits" y="400" cursor="default" color="#000" font-size="10">
        <tspan>Quelle: Präsidialdepartement des Kantons Basel-Stadt, Abteilung Kultur</tspan>
    </text>
</svg>
